svgs/solid/head-side-goggles.svg

<svg xmlns="http://www.w3.org/2000/svg" viewBox="0 0 512 512"><!--! Font Awesome Pro 6.6.0 by @fontawesome - https://fontawesome.com License - https://fontawesome.com/license (Commercial License) Copyright 2024 Fonticons, Inc. --><path d="M45.9 128C75.3 53.1 148.3 0 233.7 0L256 0c39.3 0 75.8 11.8 106.2 32L304 32c-61.9 0-112 50.1-112 112c0 17.2 3.9 33.5 10.8 48L32.2 192l-.2 0c-17.7 0-32-14.3-32-32s14.3-32 32-32l13.9 0zM304 256l203.1 0c3.2 6.2 4.9 13.1 4.9 20.2c0 24.2-19.6 43.8-43.8 43.8L448 320l0 64c0 35.3-28.7 64-64 64l-64 0 0 32c0 17.7-14.3 32-32 32l-160 0c-17.7 0-32-14.3-32-32l0-104.2c0-17-7.1-33-17.5-46.4C55 299.1 38.3 261.6 33.5 224l192.2 0c20.2 19.8 47.9 32 78.4 32zm0-192l112 0 0 160-112 0c-44.2 0-80-35.8-80-80s35.8-80 80-80zM480 224l-32 0 0-160 32 0c17.7 0 32 14.3 32 32l0 96c0 17.7-14.3 32-32 32z"/></svg>

<svg xmlns="http://www.w3.org/2000/svg" viewBox="0 0 512 512"><!--! Font Awesome Pro 6.5.2 by @fontawesome - https://fontawesome.com License - https://fontawesome.com/license (Commercial License) Copyright 2024 Fonticons, Inc. --><path d="M45.9 128C75.3 53.1 148.3 0 233.7 0H256c39.3 0 75.8 11.8 106.2 32H304c-61.9 0-112 50.1-112 112c0 17.2 3.9 33.5 10.8 48H32.2 32c-17.7 0-32-14.3-32-32s14.3-32 32-32H45.9zM304 256H507.1c3.2 6.2 4.9 13.1 4.9 20.2c0 24.2-19.6 43.8-43.8 43.8H448v64c0 35.3-28.7 64-64 64H320v32c0 17.7-14.3 32-32 32H128c-17.7 0-32-14.3-32-32V375.8c0-17-7.1-33-17.5-46.4C55 299.1 38.3 261.6 33.5 224H225.6c20.2 19.8 47.9 32 78.4 32zm0-192H416V224H304c-44.2 0-80-35.8-80-80s35.8-80 80-80zM480 224H448V64h32c17.7 0 32 14.3 32 32v96c0 17.7-14.3 32-32 32z"/></svg>
